X:1
T:Se perche non uccida
T:Luca Marenzio
T:Source : Il secondo Libro delle canzonette alla Napolitana a tre voci---Venetia---G.Visconti---1587. Editor : André Vierendeels (02/05/17).
T:Notes : Original clefs : G2, C1, F3 Editorial accidentals above the staff "Seconda impressione" Music collected by Attilio Gualtieri m 11 in B : "G" notated as "A" in original print
T:Se perche non uccida
T:©
T:©
C:Luca Marenzio
Z:©
%%score [ 1 2 3 ]
L:1/8
Q:1/4=120
M:4/4
K:C
V:1 treble nm="Soprano 1" snm="S 1"
V:2 treble nm="Soprano 2" snm="S 2"
V:3 bass nm="Bass" snm="B"
V:1
"^1)" z4 d4- | d4 c2 B2 | A2 G2 A4 | A2 c2 c3 B | c2 d2 B4- | B2 e2 g4- | g2 e2 d4 |[M:2/4] c4- :: %8
w: Se|_ per- che|non uc- ci-|da, li- ga- ta'o-|gn'hor por- ta-|* te'a pie|_ la mor-|te,|
w: O|_ se perch'|el- la so-|lo, spen- ga chi|l'al- ma non|_ vi- do-|* na'e'il co-|re,|
 c4 |[M:4/4] z4 g4- | g4 f2 e2 | d4- d4 | f4- f4- | f4 e2 d2 | c4 e4- | e4 d2 c2 | B2 c2 d3 d | %17
w: |deh|_ per pie-|tà, _|deh _|_ per pie-|tà, deh|_ per pie-|tà strin- ge- te-|
w: |la-|* sia- te|pur, _|la- *|* scia- te|pur, la-|* scia- te|pur che sfo- gh'il|
 d2 c2 B3 B | B4- B2 c2 | d3 c/B/ A4 | B8 :| %21
w: la, strin- ge- te-|la _ piu|for- * * *|te.|
w: suo, che sfo- gh'il|suo _ fu-|ro- * * *|re.|
V:2
"^2)""^1)" z4 B4- | B4 A2 G2 | F2 E2 ^F4 | ^F2 A2 A3 G | A2 F2 G4 | G6 A2 | B2 c4 B2 |[M:2/4] c4 :: %8
w: Se|_ per- che|non uc- ci-|da, li- ga- ta'o-|gn'hor por- ta-|te'a pie|la mor- *|te,|
w: O|_ se perch'|al- tri veg-|gia in un me-|des- mo tem-|po mort'e|vi- * *|ta,,|
 e4- |[M:4/4] e4 d2 c2 |"^b" B8 | z4 d4- |"^b" d4 c2 B2 | A8- | A4 c4- | c4 B2 A2 | ^G2 A2 B3 B | %17
w: deh|_ per pie-|tà,|deh|_ per pie-|tà,|_ deh|_ per pie-|tà strin- ge- te-|
w: te-|* ner- ve-|la,|te-|* ner- ve-|la,|_ te-|* ner- ve-|la te- ner- ve-|
 B2 A2 ^G3 G |"^-natural" ^G2 A2 B2 AG | ^F2 G4 F2 | G8 :| %21
w: la, strin- ge- te-|la piu for- * *||te.|
w: la con- vien a|gli'oc- chi'u- ni- * *||ta.|
V:3
"^3)""^1)""^4)" G,8- | G,4 F,2 E,2 | D,2 C,2 D,4 | D,2 F,2 F,3 E, | F,2 D,2 E,4- | %5
w: Se|_ per- che|non uc- ci-|da, li- ga- ta'o-|gn'hor por- ta-|
w: O|_ se per|for- te'il fat-|te, don- na, per|ri- cor- dar-|
 E,2 C,2 B,,2 C,2 | G,8 |[M:2/4] C,4 :: C4- |[M:4/4] C4 _B,2 A,2 | G,8 | _B,8 | B,4 A,2 G,2 | %13
w: * te'a pie la|mor-|te,|deh|_ per pie-|tà,|deh|_ per pie-|
w: * vi di lei|spef-|fo,|mi|_ ra- te|me,|mi|_ ra- te|
 F,8- | F,4 C,4- | C,4 G,2 A,2 |"^-natural" E,2 A,2 G,3 G, | G,2 F,2 E,3 E, | %18
w: tà,|_ deh|_ per- pie-|tà strin- ge- te-|la, strin- ge- te-|
w: me,|_ mi|_ ra- te|me mi ra- te|me he son l'es-|
"^-natural" E,2 F,2 G,2 F,E, | D,8 | G,,8 :| %21
w: la piu for- * *||te.|
w: sem- pio'es- pres- * *||so.|

